X:1
T:Title
%%score { ( 1 4 ) | ( 2 3 ) }
L:1/8
M:9/8
K:G
V:1 treble nm="Grand Piano"
V:4 treble 
V:2 treble 
V:3 treble 
V:1
 z3 z3[Q:1/4=100] GAB | [GB]3 [FA]2 [FA] [FA]B[DAc] | [DAc]3 [DGB]3 [DGB][DFA][DG] | %3
 [DFA]3- [DFA]2 [DFA] [CFA]G[DFA] | B6 GAB | [GB]3 [FA]3 [FA]B[DAc] | %6
 [DAc]3 [DGB]3 [DGB][DFA][DG] | [CEA]3- [CEA]2 [CEA] [B,DG]2 [A,DF] |[M:3/4] [B,DG]6 |[M:3/8] z3 | %10
[M:9/8] e6 z3 | d3 B3 BAG | A6 z3 | [DGB]6 z3 | e6 z3 | d3 B3 GAB | A6 z3 |[M:3/4] [B,DG]6 |] %18
V:2
 z3 z3 [G,B,D][G,CD][G,DG] | [D,D]3 [D,D]2 [D,D] z GD, | G,3 G,3 G,,A,,B,, | D,3- D,2 D, z B,D, | %4
 [G,DG]6 [G,B,D][G,CD][G,DG] | [D,D]3 [D,D]3 z GD, | G,3 G,3 G,,A,,B,, | C,3- C,2 C, D,2 D, | %8
[M:3/4] G,,6 |[M:3/8][K:treble] Bcd | %10
[M:9/8][K:bass] [C,C][C,C][C,C] [C,C]2 [E,C][K:treble] [G,B,G]2 [G,_B,G] | [G,B,G]3 [G,DG]3 z3 | %12
 [D,D][D,D][D,D] [D,D]2 C, B,,2 A,, | G,,6[K:treble] Bcd | %14
 [C,C][C,C][C,C] [C,C]2 [E,C][K:treble] [G,B,G]2 [G,_B,G] | [G,B,G]3 [G,DG]3 z3 | %16
 [C,C][C,C][C,C] [C,C]2 A,, D,2 D, |[M:3/4] G,,6 |] %18
V:3
 x9 | z3 z3 .[D,D]3 | x9 | z3 z3 .D,3 | x9 | z3 z3 .[D,D]3 | x9 | x9 |[M:3/4] x6 | %9
[M:3/8][K:treble] x3 |[M:9/8][K:bass] x6[K:treble] x3 | x9 | x9 | x6[K:treble] x3 | %14
 x6[K:treble] x3 | x9 | x9 |[M:3/4] x6 |] %18
V:4
 x9 | x9 | x9 | x9 | x9 | x9 | x9 | x9 |[M:3/4] x6 |[M:3/8] x3 |[M:9/8] GGG G2 [Ge] d2 ^c | x9 | %12
 FFF F2 [DFA] [DG]2 [DFA] | x9 | GGG G2 [Ge] d2 ^c | x9 | EEE E2 [EAc] [DGB]2 [CDA] |[M:3/4] x6 |] %18

